X: 6
T: The Affront taken
%R: reel
B: "Twenty Four Favourite Dances for the Year 1779", Thomas Straight, ed. p.3 #2
F: http://www.vwml.org/browse/browse-collections-dance-tune-books/browse-straights1779
Z: 2014 John Chambers <jc:trillian.mit.edu>
M: C|
L: 1/8
K: F
|:\
facf AcFA | Bdbg fedc |\
dfAc Bdbg | afge f2f2 :|
|:\
gedc Acfa | bgaf gec2 |\
dBAG fcAF | BdEG F2F2 :|
|:\
A,CFC DFBd | cAGF EGA,2 |\
B,/A,/C FC DGBG | AFGE F2F2 :|
|:\
GABG Acfc | BdcB AGF2 |\
BcdB Acfa | bgfe f2f2 :|
%%begintext align
%% Hands 4 quite round .|. back again :|. Cross over
%% 2 Cu: lead up to the top and cast off .|: hands four
%% at bottom Right and Left at top :|:
%%endtext

%%sep 1 1 500
%%sep 1 1 500
